tn/question.svg

<svg viewBox="0 0 15 15" fill="none" xmlns="http://www.w3.org/2000/svg" height="1em" width="1em">
  <path fill-rule="evenodd" clip-rule="evenodd" d="M3.67215 1.62075C4.7099 0.583002 6.11739 0 7.58499 0H7.7918C10.122 0 12 1.92493 12 4.24297C12 5.7995 11.1216 7.2482 9.72361 7.94721C8.66727 8.47538 8.00001 9.55504 8.00001 10.7361V12H7.00001V10.7361C7.00001 9.17627 7.88128 7.75035 9.2764 7.05279C10.3298 6.52607 11 5.42726 11 4.24297C11 2.46504 9.5576 1 7.7918 1H7.58499C6.38261 1 5.22947 1.47765 4.37925 2.32786L3.85356 2.85355L3.14645 2.14645L3.67215 1.62075ZM8.00001 15H7.00001V14H8.00001V15Z" fill="black"/>
</svg>

<svg viewBox="0 0 15 15" fill="none" xmlns="http://www.w3.org/2000/svg" height="1em" width="1em">
  <path fill-rule="evenodd" clip-rule="evenodd" d="M3.672 1.62A5.534 5.534 0 0 1 7.585 0h.207C10.122 0 12 1.925 12 4.243a4.15 4.15 0 0 1-2.276 3.704A3.118 3.118 0 0 0 8 10.737V12H7v-1.264c0-1.56.881-2.986 2.276-3.683A3.15 3.15 0 0 0 11 4.243C11 2.465 9.558 1 7.792 1h-.207a4.534 4.534 0 0 0-3.206 1.328l-.525.526-.708-.708.526-.525ZM8 15H7v-1h1v1Z" fill="#000"/>
</svg>
